X: 221
T: Tout Pret
C: Bert Murray
R: march
B: Bert Murray's "Bon Accord Collection" 1999 p.22
N: "Tout Pret" (Ever ready) is the slogan of the Murray clan.
Z: 2011 John Chambers <jc:trillian.mit.edu>
M: C
L: 1/8
K: D
|: vAd |\
f>a fe dAdc | B<d d>B A2 (Bc) | d>d de fagf | e>d cd e2 (Ad) | f>a fe dA d>c |
B<d d>B A2 (d>c) |[1 B2 (e>d) cAfe | d2 d>e d2 :|[2 B>B Bd cAfe | d2 (d>e) d2 ||
|: (fg) |\
a2 (a>g) fdAd | B<d d>B A2 (Bc) | d>d de fagf | e>d cd e2 (fg) | a>a ag fdAd |
B<d d>B A2 (d>c) | [1 B2 (e>d) cAfe | d2 d>e d2 :|[2 B>B Bd cAfe | d2 (d>e) d2 :|

%%sep 2 1 500

